dist/images/logoIcap.svg

<svg width="110" height="32" viewBox="0 0 110 32" fill="none" xmlns="http://www.w3.org/2000/svg">
<g clip-path="url(#clip0_144_995)">
<path d="M18.2121 0.185719C17.2046 0.51889 16.5227 1.55715 16.6061 2.61865C16.6288 2.85884 16.6667 3.11453 16.697 3.18427C16.7576 3.33148 14.0606 5.59395 11.0606 7.90291C8.86364 9.59976 8.71213 9.73923 8.71213 10.0647C8.71213 10.2894 9.05304 11.2734 10.1136 14.1015C10.3939 14.8453 10.9546 16.4492 11.3636 17.6656C12.3182 20.5092 12.3182 20.5092 12.5985 20.6564C12.8106 20.7726 13.4242 20.7804 13.5303 20.6642C13.6742 20.517 11.9621 15.4109 10.3182 11.0952L10.0152 10.3048L11.8788 8.85594C12.9091 8.06562 14.2727 6.98088 14.9167 6.44625C15.553 5.91163 16.3864 5.22204 16.7652 4.91211L17.447 4.35424L17.7955 4.5402C18.7803 5.05933 19.8333 4.89662 20.5758 4.0908C21.0909 3.54843 21.1742 3.32373 21.1742 2.47918C21.1742 1.85158 21.1439 1.68887 20.9849 1.37119C20.7576 0.914049 20.3258 0.503395 19.8561 0.286446C19.4242 0.092741 18.6288 0.0385036 18.2121 0.185719ZM19.5379 1.52616C19.8485 1.76635 20.0152 2.15376 19.9773 2.57991C19.9546 2.88984 19.8939 3.01381 19.6742 3.2385C19.447 3.47095 19.3409 3.51744 19 3.54843C18.6667 3.57168 18.553 3.54843 18.3333 3.39347C17.3788 2.73487 17.8712 1.23172 19.0076 1.34795C19.1894 1.36344 19.4242 1.44093 19.5379 1.52616Z" fill="white"/>
<path d="M21.0455 5.75667C20.9318 5.8109 20 6.54698 18.9697 7.39928C17.9394 8.25158 16.1439 9.69274 14.9697 10.5993C13.803 11.5058 12.7652 12.3349 12.6742 12.4433C12.4621 12.6758 12.4545 13.0787 12.6364 13.5049L12.7652 13.7993L13.4091 13.3499C14.447 12.6216 17.0758 10.5683 19.2576 8.77071C20.3712 7.85642 21.3258 7.1281 21.3788 7.15134C21.4318 7.17458 22.1439 7.67047 22.9545 8.25158C24.1364 9.10388 26.3258 10.607 28.9242 12.3504C29.0833 12.4588 29.1515 12.5518 29.1212 12.6293C29.0985 12.6913 29.0606 12.9547 29.0379 13.2104C28.9849 13.9 29.2121 14.4811 29.7652 15.0312C30.0909 15.3644 30.2955 15.4961 30.6364 15.6046C31.1667 15.7751 31.7803 15.7441 32.2879 15.5194C33.7349 14.8608 34.1136 12.8153 33 11.6763C32.25 10.9092 31.0833 10.7465 30.1742 11.2811L29.8485 11.4748L29.5682 11.2889C28.553 10.6303 25.2349 8.36006 23.9015 7.39928C21.3333 5.56296 21.3939 5.59396 21.0455 5.75667ZM31.9091 12.3659C32.5455 12.699 32.5985 13.807 31.9924 14.2409C31.1439 14.8453 30 14.0317 30.2879 13.0322C30.5 12.3194 31.2273 12.0172 31.9091 12.3659Z" fill="white"/>
<path d="M4.4697 9.112C3.4091 9.50716 2.81819 10.4214 2.89394 11.5449C2.9394 12.157 3.12879 12.5987 3.54546 13.0481C3.89394 13.42 4.51516 13.7144 4.96213 13.7144C5.20455 13.7144 5.31819 13.7532 5.37122 13.8539C5.53788 14.1793 7.02273 18.4563 7.80304 20.866C8.37879 22.6481 8.69697 23.5314 8.81061 23.6398C8.9697 23.8026 9.01516 23.8026 10.6439 23.7483C11.5606 23.7173 14 23.6708 16.0682 23.6398C19.5985 23.5934 19.8409 23.5856 19.9924 23.4461C20.1591 23.2912 20.4242 22.5706 20.3409 22.4854C20.3106 22.4544 19.9924 22.4156 19.6364 22.3924C18.8636 22.3382 11.9924 22.4311 10.5909 22.5164L9.63637 22.5629L8.83334 20.0989C8.40152 18.7352 7.69697 16.6665 7.28031 15.4965L6.53031 13.3658L6.81819 13.0558C7.25 12.5909 7.4394 12.1338 7.48485 11.5062C7.54546 10.5222 7.04546 9.65438 6.18182 9.22823C5.70455 8.98803 4.9394 8.94154 4.4697 9.112ZM5.67425 10.3672C6.03031 10.5454 6.2197 10.8398 6.26516 11.2505C6.31061 11.6379 6.1894 11.9401 5.87122 12.2423C5.69697 12.405 5.59849 12.436 5.1894 12.436C4.78031 12.436 4.67425 12.405 4.50758 12.2423C3.9091 11.6844 3.98485 10.8011 4.66667 10.406C5.02273 10.1968 5.32576 10.1813 5.67425 10.3672Z" fill="white"/>
<path d="M76.7424 9.89426C76.4773 10.3592 76.1439 10.9403 75.9924 11.196C75.6439 11.8158 75.3182 12.3737 75.1136 12.7069C75.0227 12.8541 74.7803 13.2725 74.5758 13.6366C73.4167 15.6512 71.7045 18.58 71.5909 18.7504C71.5152 18.8589 71.3864 19.0991 71.2879 19.2851C71.197 19.471 71.0909 19.6647 71.053 19.7112C71.0152 19.7577 70.7197 20.2458 70.4015 20.8037C69.1818 22.95 68.9697 23.3141 68.3939 24.2981C68.0682 24.856 67.803 25.3364 67.803 25.3596C67.803 25.3906 68.3106 25.4139 68.9394 25.4139C70.2576 25.4139 70.0152 25.5766 70.8864 24.0579C71.6136 22.7872 72.6591 20.9742 72.8939 20.5713C73 20.4008 73.3258 19.8274 73.6364 19.2928C73.9394 18.7582 74.2652 18.2003 74.3561 18.0531C74.5379 17.7587 75.3636 16.3253 75.5 16.0773C75.5909 15.8991 76.4091 14.4967 77.4849 12.6604L78.2197 11.4052L78.3409 11.6144C78.4015 11.7228 78.6591 12.1955 78.9015 12.6681C79.447 13.7296 79.7652 14.334 80.6439 15.9998C81.0227 16.7204 81.3864 17.4178 81.4545 17.5495C81.5152 17.6734 81.697 18.0221 81.8561 18.3243C82.697 19.9127 83.8258 22.0667 84.2197 22.8182C84.4621 23.2909 84.8636 24.0657 85.1136 24.5461L85.5682 25.4139H86.7273C87.3561 25.4139 87.8788 25.3906 87.8788 25.3674C87.8788 25.2899 87.4545 24.4531 86.4242 22.5083C85.8636 21.4391 85.2349 20.2536 85.0379 19.8739C84.8409 19.4865 84.2121 18.2855 83.6364 17.2008C83.0606 16.1161 82.0985 14.2642 81.4849 13.0943C80.8712 11.9243 80.3409 10.9093 80.303 10.8473C80.2652 10.7853 80.0455 10.3669 79.8258 9.91751L79.4167 9.10395L78.3258 9.0807L77.2273 9.05746L76.7424 9.89426Z" fill="white"/>
<path d="M94.0909 10.065V11.0722L99.947 11.0955C105.795 11.1187 105.795 11.1187 106.242 11.2892C106.977 11.5759 107.629 12.219 107.803 12.8543C108.053 13.7144 107.932 14.5047 107.455 15.1478C107.091 15.6282 106.667 15.9304 106.076 16.1163C105.606 16.2635 105.364 16.2713 99.803 16.2713H94.0152L94.0303 20.8195L94.053 25.3754L95.0909 25.3986L96.1364 25.4219L96.1515 21.8732L96.1743 18.3245L101.174 18.2781C104.379 18.2548 106.273 18.2083 106.439 18.1541C107.962 17.6814 108.992 16.8136 109.583 15.5352C110.735 13.048 109.432 10.2122 106.705 9.28241L106.174 9.1042L100.136 9.08096L94.0909 9.05771V10.065Z" fill="white"/>
<path d="M37.197 17.2012V25.2593H38.2576H39.3182V17.5576C39.3182 13.3271 39.2955 9.70092 39.2727 9.49947L39.2197 9.14305H38.2121H37.197V17.2012Z" fill="white"/>
<path d="M52.5455 9.26685C50.4091 9.66201 48.4015 10.9172 47.2349 12.5908C46.5076 13.6368 46.0076 14.7991 45.8333 15.8838C45.697 16.6896 45.7197 18.1928 45.8712 18.9366C46.4394 21.7259 48.5303 24.0426 51.3409 25.0189C52.3788 25.3753 52.9546 25.4141 57.2576 25.4141H61.2879V24.4068V23.3995H57.2803C52.8333 23.3995 52.5758 23.3763 51.5227 22.9114C48.5985 21.6175 47.0985 18.4872 48.0076 15.5429C48.6061 13.5826 50.3939 11.878 52.3939 11.3434C52.8561 11.2271 53.3939 11.2039 57.1061 11.1806L61.2879 11.1497V10.1424V9.14288L57.2197 9.15063C54.0455 9.15837 53.0152 9.18162 52.5455 9.26685Z" fill="white"/>
<path d="M19.5985 10.739C19.4015 10.8939 19.2424 11.0334 19.2424 11.0411C19.2424 11.0954 20.7046 12.1646 22.1212 13.1409C23.8485 14.3419 24.6818 14.892 26.7652 16.2324C27.5455 16.7361 28.1818 17.17 28.1818 17.2087C28.1818 17.2397 27.9091 18.2392 27.5833 19.4247C27.25 20.6102 26.7424 22.5394 26.447 23.7094C25.6591 26.8552 25.7879 26.522 25.3182 26.5918C24.5455 26.708 23.9773 27.1419 23.6212 27.8702C23.2879 28.5598 23.2803 29.2881 23.5909 29.9312C23.8485 30.4813 24.3333 30.9307 24.8788 31.1399C26.0076 31.5661 27.2424 31.047 27.7803 29.9157C27.9546 29.5516 27.9924 29.3888 27.9849 28.9007C27.9773 28.1956 27.7727 27.7075 27.2955 27.2116C27.1136 27.0334 26.9697 26.8474 26.9697 26.801C26.9697 26.5918 28.1061 22.1288 28.7046 19.9825C29.6212 16.6973 29.5682 16.9143 29.4697 16.6586C29.4015 16.4959 28.8864 16.124 27.3636 15.1399C26.25 14.4194 24.2349 13.0712 22.8864 12.1491C20.9773 10.8397 20.3712 10.46 20.1894 10.46C20.0303 10.46 19.8333 10.553 19.5985 10.739ZM26.2727 27.9709C26.6061 28.1801 26.8409 28.7148 26.7727 29.1022C26.7046 29.4741 26.3409 29.8847 25.9773 29.9932C25.5909 30.1172 25.1894 29.9932 24.8864 29.6755C24.4394 29.2029 24.5833 28.2421 25.1364 27.9322C25.4394 27.7695 25.9773 27.785 26.2727 27.9709Z" fill="white"/>
<path d="M16.6515 12.7767C15.3106 13.7375 14 14.7293 13.697 15.016C13.5758 15.1244 13.4848 15.2872 13.4848 15.3724C13.4848 15.783 14.9318 20.277 15.1591 20.5559C15.2879 20.7264 15.3333 20.7264 17.8182 20.7496C19.2045 20.7651 20.4167 20.7496 20.5076 20.7264C20.5985 20.7031 20.7273 20.6334 20.7879 20.5714C20.9015 20.4552 22.1439 16.6896 22.3485 15.8373C22.4015 15.6203 22.4242 15.3569 22.4015 15.2562C22.3258 14.9695 18.2879 11.9322 17.9773 11.9322C17.8864 11.9322 17.2955 12.3118 16.6515 12.7767ZM18.7803 13.9235C19.5076 14.4426 20.6515 15.3181 20.9545 15.5893L21.1136 15.7365L20.8561 16.6043C20.7197 17.0847 20.447 17.937 20.25 18.4949L19.9015 19.5254H17.9848C16.2121 19.5254 16.0606 19.5177 15.9924 19.3859C15.8258 19.0683 14.8485 15.9612 14.8485 15.752C14.8485 15.6126 17.7576 13.4121 17.947 13.4043C18 13.4043 18.3788 13.6368 18.7803 13.9235Z" fill="white"/>
<path d="M24 16.868C23.3788 18.5261 21.8106 23.6399 21.1288 26.2355L21.0455 26.5532L17.25 26.5997C15.1591 26.6307 13.0227 26.6772 12.5 26.7004L11.553 26.7469L11.4167 26.3982C11.2273 25.9179 10.8485 25.4917 10.3712 25.2205C10 25.0113 9.89395 24.9881 9.28031 24.9881C8.7197 24.9881 8.54546 25.0191 8.28031 25.1663C7.78031 25.4375 7.44698 25.7784 7.2197 26.251C7.03789 26.6229 7.00758 26.7934 7.00758 27.3125C7.00758 28.3198 7.41667 29.0016 8.27274 29.4433C9.12122 29.8694 10.1212 29.73 10.8258 29.0869C11.0379 28.8932 11.2727 28.5755 11.3636 28.3663L11.5303 27.9944L12.6818 27.9401C13.3106 27.9169 15.6061 27.8704 17.7803 27.8394C21.6818 27.7929 21.7424 27.7929 21.8864 27.6302C21.9849 27.5217 22.2727 26.6384 22.6894 25.1818C23.0455 23.9266 23.7197 21.7106 24.1818 20.2617C25.1743 17.1469 25.2046 17.0384 25.0909 16.775C25.0152 16.6123 24.447 16.1164 24.3258 16.1164C24.303 16.1164 24.1515 16.4573 24 16.868ZM9.77274 26.3285C10.4849 26.6927 10.5833 27.607 9.9697 28.1958C9.67425 28.4748 9.06819 28.5135 8.7197 28.2656C8.34849 28.0021 8.16667 27.6225 8.21213 27.2118C8.31819 26.3982 9.07577 25.9721 9.77274 26.3285Z" fill="white"/>
</g>
<defs>
<clipPath id="clip0_144_995">
<rect width="110" height="32" fill="white"/>
</clipPath>
</defs>
</svg>

<svg width="110" height="32" fill="none" xmlns="http://www.w3.org/2000/svg"><g clip-path="url(#clip0_144_995)" fill="#fff"><path d="M18.212.186c-1.007.333-1.69 1.371-1.606 2.433.023.24.06.496.091.565.06.147-2.636 2.41-5.636 4.719C8.864 9.6 8.712 9.739 8.712 10.065c0 .224.341 1.208 1.402 4.037.28.743.84 2.347 1.25 3.564.954 2.843.954 2.843 1.234 2.99.213.117.826.124.932.008.144-.147-1.568-5.253-3.212-9.569l-.303-.79 1.864-1.45a125.11 125.11 0 003.038-2.409c.636-.534 1.47-1.224 1.848-1.534l.682-.558.349.186c.984.52 2.037.357 2.78-.45.515-.542.598-.766.598-1.61 0-.628-.03-.791-.19-1.109A2.459 2.459 0 0019.857.286c-.432-.193-1.227-.247-1.644-.1zm1.326 1.34c.31.24.477.628.44 1.054-.023.31-.084.434-.304.659-.227.232-.333.278-.674.31-.333.023-.447 0-.667-.156-.954-.658-.462-2.161.675-2.045.181.015.416.093.53.178z"/><path d="M21.046 5.757c-.114.054-1.046.79-2.076 1.642a180.01 180.01 0 01-4 3.2c-1.167.907-2.205 1.736-2.296 1.844-.212.233-.22.636-.038 1.062l.13.294.643-.45c1.038-.727 3.667-2.78 5.849-4.578 1.113-.915 2.068-1.643 2.12-1.62.054.024.766.52 1.576 1.1 1.182.853 3.372 2.356 5.97 4.1.16.108.227.2.197.278a4.11 4.11 0 00-.083.581c-.053.69.174 1.271.727 1.821.326.333.53.465.871.574.53.17 1.144.14 1.652-.086 1.447-.658 1.826-2.704.712-3.843a2.315 2.315 0 00-2.826-.395l-.325.194-.28-.186a227.509 227.509 0 01-5.668-3.89c-2.568-1.836-2.507-1.805-2.855-1.642zm10.863 6.609c.636.333.69 1.441.083 1.875-.848.604-1.992-.21-1.704-1.209.212-.713.94-1.015 1.621-.666zM4.47 9.112c-1.06.395-1.652 1.31-1.576 2.433.045.612.235 1.054.651 1.503.349.372.97.666 1.417.666.243 0 .356.04.41.14.166.325 1.65 4.602 2.431 7.012.576 1.782.894 2.665 1.008 2.774.159.163.204.163 1.833.108.917-.03 3.356-.077 5.424-.108 3.53-.047 3.773-.054 3.924-.194.167-.155.432-.875.349-.96-.03-.032-.349-.07-.705-.094-.772-.054-7.644.04-9.045.124l-.955.047-.803-2.464a165.208 165.208 0 00-1.553-4.603l-.75-2.13.288-.31c.432-.465.621-.922.667-1.55.06-.984-.44-1.852-1.303-2.278-.477-.24-1.243-.286-1.712-.116zm1.204 1.255c.356.178.546.473.591.883.046.388-.076.69-.394.992-.174.163-.273.194-.682.194-.409 0-.515-.031-.681-.194-.599-.558-.523-1.44.159-1.836.356-.21.659-.225 1.007-.039zm71.068-.473c-.265.465-.598 1.046-.75 1.302-.348.62-.674 1.178-.878 1.51-.091.148-.334.567-.538.93-1.16 2.015-2.871 4.944-2.985 5.114a6.793 6.793 0 00-.303.535 3.53 3.53 0 01-.235.426c-.038.047-.333.535-.651 1.093a245.647 245.647 0 01-2.008 3.494c-.326.558-.591 1.038-.591 1.062 0 .03.508.054 1.136.054 1.319 0 1.076.163 1.947-1.356.728-1.27 1.773-3.084 2.008-3.487.106-.17.432-.744.742-1.278.303-.535.63-1.093.72-1.24.182-.294 1.008-1.728 1.144-1.976.09-.178.91-1.58 1.985-3.417l.735-1.255.12.21c.061.108.32.58.561 1.053.546 1.062.864 1.666 1.743 3.332a396.593 396.593 0 011.212 2.324c.841 1.589 1.97 3.743 2.364 4.494.242.473.644 1.248.894 1.728l.454.868h1.16c.628 0 1.15-.023 1.15-.047 0-.077-.424-.914-1.454-2.859-.56-1.069-1.19-2.254-1.386-2.634a255.56 255.56 0 00-1.402-2.673c-.575-1.085-1.537-2.937-2.151-4.107-.614-1.17-1.144-2.185-1.182-2.247-.038-.062-.257-.48-.477-.93l-.41-.813-1.09-.023-1.099-.024-.485.837zm17.348.171v1.007l5.857.024c5.848.023 5.848.023 6.295.193.735.287 1.387.93 1.561 1.565.25.86.129 1.65-.348 2.294a2.62 2.62 0 01-1.379.968c-.47.148-.712.155-6.273.155h-5.788l.015 4.549.023 4.555 1.038.024 1.045.023.016-3.549.022-3.549 5-.046c3.205-.023 5.099-.07 5.265-.124 1.523-.473 2.553-1.34 3.144-2.619 1.152-2.487-.151-5.323-2.878-6.253l-.531-.178-6.038-.023-6.045-.023v1.007zm-56.893 7.136v8.058h2.121v-7.701c0-4.23-.023-7.857-.045-8.059l-.053-.356h-2.023v8.058zm15.348-7.934c-2.136.395-4.144 1.65-5.31 3.324-.727 1.046-1.227 2.208-1.402 3.293-.136.806-.113 2.309.038 3.053.568 2.789 2.66 5.106 5.47 6.082 1.038.356 1.614.395 5.917.395h4.03V23.4H57.28c-4.447 0-4.704-.023-5.757-.488-2.925-1.294-4.425-4.424-3.515-7.368.598-1.96 2.386-3.665 4.386-4.2.462-.116 1-.14 4.712-.162l4.182-.031V9.142l-4.068.009c-3.175.007-4.205.03-4.675.116z"/><path d="M19.599 10.739a4.044 4.044 0 00-.357.302c0 .054 1.463 1.124 2.88 2.1 1.727 1.2 2.56 1.751 4.643 3.091.78.504 1.417.938 1.417.977 0 .03-.273 1.03-.599 2.216a200.55 200.55 0 00-1.136 4.284c-.788 3.146-.66 2.813-1.129 2.883-.773.116-1.34.55-1.697 1.278-.333.69-.34 1.418-.03 2.061.258.55.742 1 1.288 1.209 1.129.426 2.363-.093 2.901-1.224.175-.364.212-.527.205-1.015-.008-.705-.212-1.194-.69-1.69-.181-.178-.325-.364-.325-.41 0-.21 1.136-4.672 1.735-6.818.916-3.286.863-3.069.765-3.324-.069-.163-.584-.535-2.106-1.52a259.598 259.598 0 01-4.478-2.99c-1.909-1.31-2.515-1.689-2.697-1.689-.159 0-.356.093-.59.279zm6.674 17.232c.333.21.568.744.5 1.131-.068.372-.432.783-.796.891-.386.124-.788 0-1.09-.317-.448-.473-.304-1.434.25-1.744.302-.162.84-.147 1.136.039z"/><path d="M16.651 12.777c-1.34.96-2.651 1.952-2.954 2.239-.121.108-.212.271-.212.356 0 .411 1.447 4.905 1.674 5.184.129.17.174.17 2.66.194 1.386.015 2.598 0 2.689-.024a.714.714 0 00.28-.155c.113-.116 1.356-3.881 1.56-4.734.053-.217.076-.48.053-.58-.075-.287-4.113-3.325-4.424-3.325-.09 0-.681.38-1.326.845zm2.13 1.147c.727.519 1.87 1.394 2.174 1.665l.159.147-.258.868a38.55 38.55 0 01-.606 1.89l-.349 1.031h-1.916c-1.773 0-1.924-.007-1.993-.14-.166-.317-1.144-3.424-1.144-3.633 0-.14 2.91-2.34 3.099-2.348.053 0 .432.233.833.52z"/><path d="M24 16.868c-.621 1.658-2.19 6.772-2.871 9.367l-.084.318-3.795.047c-2.09.03-4.227.077-4.75.1l-.947.047-.136-.349a2.4 2.4 0 00-1.046-1.177c-.371-.21-.477-.233-1.09-.233-.561 0-.736.031-1 .178-.5.271-.834.612-1.061 1.085-.182.372-.212.542-.212 1.061 0 1.008.409 1.69 1.265 2.131a2.255 2.255 0 002.553-.356c.212-.194.447-.511.538-.72l.166-.373 1.152-.054c.629-.023 2.924-.07 5.098-.1 3.902-.047 3.962-.047 4.106-.21.099-.108.387-.992.803-2.448.357-1.255 1.03-3.471 1.493-4.92.992-3.115 1.023-3.224.909-3.487-.076-.163-.644-.659-.765-.659-.023 0-.175.341-.326.752zm-14.227 9.46c.712.365.81 1.279.197 1.868-.296.279-.902.317-1.25.07-.372-.264-.553-.643-.508-1.054.106-.814.864-1.24 1.56-.884z"/></g><defs><clipPath id="clip0_144_995"><path fill="#fff" d="M0 0h110v32H0z"/></clipPath></defs></svg>
